!!!OTL: DER KOENIG VON PREUSSEN HAT LEUT
!!!ARE: Europa, Mitteleuropa, Deutschland, Schweinfurt
!!!SCT: E0332
!!!YEM: Copyright 1995, estate of Helmut Schaffrath.
**kern
*ICvox
*Ivox
!! Mixed meters:  2/4; 3/4
*M3/4
*k[f#]
*G:
{4dd
=1
12b
12a
12g
12a
12g
12f#
=2
4g
8r}
{8a
=3
8b
8dd
8cc
8b
=4
8a
8g
8f#
8e
=5
8d
8e
8d
8c
=6
2B}
=7
{8.a
16a
8a
8a
8a
8b
=8
2cc
4r}
=9
{8.b
16b
8b
8b
8b
8cc
=10
2dd
4r}
=11
{4a
8.a
16a
8a
8a
=12
2b
4r}
=13
{4dd
8.a
16a
8a
8a
=14
2b}
==
!!!AGN: historisches Lied, Krieg, Breslau (1760)
!!!ONB: ESAC (Essen Associative Code) Database: ERK1
!!!AMT: irregular
!!!AIN: vox
!!!EED: Helmut Schaffrath
!!!EEV: 1.0
*-
